src/assets/media/svg/sprite/undo.svg

<svg width="16" height="15" viewBox="0 0 16 15" fill="none" xmlns="http://www.w3.org/2000/svg">
<path d="M5.92632 6.30087L2.65703 9.2786L0 5.61594L1.23465 4.79629L2.12317 5.88194C2.48214 4.31842 3.36263 2.92038 4.62245 1.91356C5.88228 0.906749 7.44791 0.349927 9.06654 0.333008C12.9385 0.333008 15.9998 3.63167 15.9998 7.46497C16.0072 8.36891 15.8329 9.26528 15.4871 10.1018C15.1413 10.9384 14.6309 11.6984 13.9856 12.3376C13.3403 12.9768 12.5731 13.4824 11.7285 13.825C10.884 14.1675 9.97909 14.3401 9.06654 14.3328C7.1766 14.3385 5.36059 13.6059 4.01248 12.2938L5.14419 11.1736C6.19291 12.1872 7.60136 12.7525 9.06654 12.7479C9.76903 12.7555 10.466 12.624 11.1165 12.3612C11.767 12.0984 12.358 11.7095 12.8547 11.2174C13.3515 10.7254 13.7441 10.14 14.0094 9.49558C14.2747 8.85121 14.4074 8.16083 14.3998 7.46497C14.3998 4.50573 12.0564 1.91789 9.06654 1.91789C7.8211 1.93453 6.61688 2.36241 5.64472 3.13372C4.67256 3.90503 3.98805 4.97565 3.69968 6.17593L4.84313 5.1344L5.92632 6.30087Z" />
</svg>

<svg xmlns="http://www.w3.org/2000/svg" width="16" height="15" fill="none"><path d="M5.926 6.3 2.657 9.28 0 5.616l1.235-.82.888 1.086a7.12 7.12 0 0 1 2.5-3.968A7.24 7.24 0 0 1 9.066.333C12.938.333 16 3.632 16 7.465c.007.904-.167 1.8-.513 2.637a6.8 6.8 0 0 1-1.501 2.236 6.9 6.9 0 0 1-2.258 1.487 6.9 6.9 0 0 1-2.661.508 7.22 7.22 0 0 1-5.055-2.04l1.132-1.12a5.62 5.62 0 0 0 3.923 1.575 5.3 5.3 0 0 0 2.05-.387 5.3 5.3 0 0 0 1.738-1.144 5.2 5.2 0 0 0 1.154-1.721 5.2 5.2 0 0 0 .39-2.031c0-2.96-2.343-5.547-5.332-5.547a5.63 5.63 0 0 0-3.422 1.216A5.54 5.54 0 0 0 3.7 6.176l1.143-1.042z"/></svg>
